X:59
T: ES ZOG EIN REITER WOHL UEBER DEN RHEIN
N: E0042E
O: Europa, Mitteleuropa, Deutschland, Westfalen
R: erzaehlendes Volks - Lied, Ritter -, Raeuber - Sage
M: 6/8
L: 1/8
K: G
D | G2GGAB | BAAA2
A | FAAABc | c2BB2
G | GGGGAB | c3A2d | B3G2
G | A2AcAF | A3G2

@@@ Tune index: 3709
